dist/img/socfb.svg

<svg width="17" height="30" viewBox="0 0 17 30" fill="none" xmlns="http://www.w3.org/2000/svg">
<path d="M15.6124 0.00586052L11.721 0C7.34909 0 4.52432 2.90096 4.52432 7.38425V10.7892H0.609494C0.269584 10.7892 0 11.0647 0 11.3987V16.3333C0 16.6732 0.275445 16.9428 0.609494 16.9428H4.52432V29.3905C4.52432 29.7304 4.79977 30 5.13382 30H10.2383C10.5782 30 10.8478 29.7246 10.8478 29.3905V16.9486H15.4249C15.7648 16.9486 16.0344 16.6732 16.0344 16.3391V11.4046C16.0344 11.2405 15.9699 11.0881 15.8527 10.9709C15.7355 10.8537 15.5831 10.7892 15.419 10.7892H10.842V7.90584C10.842 6.5169 11.1702 5.81364 12.9811 5.81364H15.6007C15.9406 5.81364 16.2102 5.53819 16.2102 5.20414V0.615355C16.2219 0.281305 15.9465 0.00586052 15.6124 0.00586052Z" fill="#BBB4A7"/>
</svg>

<svg width="17" height="30" fill="none" xmlns="http://www.w3.org/2000/svg"><path d="M15.612.006L11.721 0C7.349 0 4.524 2.901 4.524 7.384v3.405H.61A.61.61 0 000 11.4v4.934c0 .34.275.61.61.61h3.914V29.39c0 .34.276.61.61.61h5.104a.61.61 0 00.61-.61V16.95h4.577a.61.61 0 00.61-.61v-4.934a.608.608 0 00-.182-.434.608.608 0 00-.434-.182h-4.577V7.906c0-1.39.328-2.092 2.14-2.092H15.6a.61.61 0 00.61-.61V.615a.595.595 0 00-.599-.61z" fill="#BBB4A7"/></svg>
